assets/src/images/icons/ic_home_phone.svg

<svg width="33" height="58" viewBox="0 0 33 58" fill="none" xmlns="http://www.w3.org/2000/svg">
<path d="M4.53292 0H28.1043C30.6037 0 32.6372 2.03348 32.6372 4.53295V49.8624C32.6372 52.3619 30.6037 54.3954 28.1043 54.3954H4.53292C2.03345 54.3954 -3.05176e-05 52.3619 -3.05176e-05 49.8624V4.53295C-3.05176e-05 2.03348 2.03345 0 4.53292 0ZM1.81315 49.8624C1.81315 51.3619 3.03342 52.5822 4.53292 52.5822H28.1043C29.6038 52.5822 30.824 51.3619 30.824 49.8624V4.53295C30.824 3.03345 29.6038 1.81318 28.1043 1.81318H4.53292C3.03342 1.81318 1.81315 3.03345 1.81315 4.53295V49.8624Z" fill="#0EF5FF"/>
<path d="M0.906559 48.9541C1.4079 48.9541 1.81315 49.3593 1.81315 49.8607V53.468C1.81315 54.9675 3.03342 56.1878 4.53292 56.1878H28.1043C29.6038 56.1878 30.824 54.9675 30.824 53.468V49.8607C30.824 49.3593 31.2293 48.9541 31.7306 48.9541C32.232 48.9541 32.6372 49.3593 32.6372 49.8607V53.4671C32.6372 55.9666 30.6037 58.0001 28.1043 58.0001H4.53292C2.03345 58.0001 -3.05176e-05 55.9666 -3.05176e-05 53.468V49.8607C-3.05176e-05 49.3593 0.405216 48.9541 0.906559 48.9541Z" fill="#0EF5FF"/>
<path d="M0.906559 45.3076H31.7306C32.232 45.3076 32.6372 45.7129 32.6372 46.2142C32.6372 46.7156 32.232 47.1208 31.7306 47.1208H0.906559C0.405216 47.1208 -3.05176e-05 46.7156 -3.05176e-05 46.2142C-3.05176e-05 45.7129 0.405216 45.3076 0.906559 45.3076Z" fill="#0EF5FF"/>
<path d="M16.3349 47.1208C17.8344 47.1208 19.0547 48.3411 19.0547 49.8406C19.0547 51.3401 17.8344 52.5604 16.3349 52.5604C14.8345 52.5604 13.6151 51.3401 13.6151 49.8406C13.6151 48.3411 14.8354 47.1208 16.3349 47.1208ZM16.3349 50.7472C16.8354 50.7472 17.2415 50.3411 17.2415 49.8406C17.2415 49.3402 16.8354 48.934 16.3349 48.934C15.8345 48.934 15.4283 49.3402 15.4283 49.8406C15.4283 50.3411 15.8345 50.7472 16.3349 50.7472Z" fill="#0EF5FF"/>
<path d="M15.5534 9.47472C15.8218 9.05316 16.3811 8.92895 16.8054 9.1964L26.7779 15.5425C27.2004 15.8118 27.3255 16.3721 27.0562 16.7945C26.8831 17.0656 26.5903 17.2143 26.2902 17.2143C26.1234 17.2143 25.9556 17.168 25.8042 17.0729L15.8317 10.7267C15.4093 10.4575 15.2842 9.89719 15.5534 9.47472Z" fill="#0EF5FF"/>
<path d="M5.85909 15.5426L15.8316 9.19651C16.255 8.92997 16.8143 9.05417 17.0836 9.47483C17.3528 9.8973 17.2277 10.4576 16.8053 10.7268L6.83277 17.073C6.68137 17.1682 6.51365 17.2144 6.34684 17.2144C6.04766 17.2144 5.75393 17.0657 5.58077 16.7946C5.31151 16.3722 5.43662 15.8119 5.85909 15.5426Z" fill="#0EF5FF"/>
<path d="M15.5534 13.1011C15.8218 12.6795 16.3811 12.5544 16.8054 12.8228L26.7779 19.1689C27.2004 19.4382 27.3255 19.9984 27.0562 20.4209C26.8831 20.692 26.5903 20.8407 26.2902 20.8407C26.1234 20.8407 25.9556 20.7944 25.8042 20.6992L15.8317 14.3531C15.4093 14.0838 15.2842 13.5236 15.5534 13.1011Z" fill="#0EF5FF"/>
<path d="M5.85909 19.1689L15.8316 12.8227C16.255 12.5562 16.8143 12.6804 17.0836 13.101C17.3528 13.5235 17.2277 14.0838 16.8053 14.3531L6.83277 20.6992C6.68137 20.7944 6.51365 20.8406 6.34684 20.8406C6.04766 20.8406 5.75393 20.6919 5.58077 20.4209C5.31151 19.9984 5.43662 19.4381 5.85909 19.1689Z" fill="#0EF5FF"/>
<path d="M26.2912 15.4011C26.7925 15.4011 27.1978 15.8064 27.1978 16.3077V19.9341C27.1978 20.4354 26.7925 20.8407 26.2912 20.8407C25.7898 20.8407 25.3846 20.4354 25.3846 19.9341V16.3077C25.3846 15.8064 25.7898 15.4011 26.2912 15.4011Z" fill="#0EF5FF"/>
<path d="M6.34585 15.4011C6.8472 15.4011 7.25244 15.8064 7.25244 16.3077V19.9341C7.25244 20.4354 6.8472 20.8407 6.34585 20.8407C5.84451 20.8407 5.43926 20.4354 5.43926 19.9341V16.3077C5.43926 15.8064 5.84451 15.4011 6.34585 15.4011Z" fill="#0EF5FF"/>
<path d="M24.4777 17.8743C24.979 17.8743 25.3843 18.2795 25.3843 18.7809V29.9065C25.3843 30.4079 24.979 30.8131 24.4777 30.8131C23.9763 30.8131 23.5711 30.4079 23.5711 29.9065V18.7809C23.5711 18.2795 23.9763 17.8743 24.4777 17.8743Z" fill="#0EF5FF"/>
<path d="M5.43974 29H27.1979C27.6992 29 28.1045 29.4052 28.1045 29.9066C28.1045 30.4079 27.6992 30.8132 27.1979 30.8132H5.43974C4.9384 30.8132 4.53316 30.4079 4.53316 29.9066C4.53316 29.4052 4.9384 29 5.43974 29Z" fill="#0EF5FF"/>
<path d="M8.15933 17.8743C8.66067 17.8743 9.06592 18.2795 9.06592 18.7809V29.9065C9.06592 30.4079 8.66067 30.8131 8.15933 30.8131C7.65798 30.8131 7.25274 30.4079 7.25274 29.9065V18.7809C7.25274 18.2795 7.65798 17.8743 8.15933 17.8743Z" fill="#0EF5FF"/>
<path d="M14.5056 21.7473H18.132C18.6333 21.7473 19.0386 22.1526 19.0386 22.6539V29.9066C19.0386 30.408 18.6333 30.8132 18.132 30.8132H14.5056C14.0043 30.8132 13.599 30.408 13.599 29.9066V22.6539C13.599 22.1526 14.0043 21.7473 14.5056 21.7473ZM15.4122 29H17.2254V23.5605H15.4122V29Z" fill="#0EF5FF"/>
<path d="M17.2254 33.533H27.1979C27.6992 33.533 28.1045 33.9382 28.1045 34.4395C28.1045 34.9409 27.6992 35.3461 27.1979 35.3461H17.2254C16.7241 35.3461 16.3188 34.9409 16.3188 34.4395C16.3188 33.9382 16.7241 33.533 17.2254 33.533Z" fill="#0EF5FF"/>
<path d="M21.7584 36.2527H27.1979C27.6992 36.2527 28.1045 36.6579 28.1045 37.1593C28.1045 37.6606 27.6992 38.0659 27.1979 38.0659H21.7584C21.257 38.0659 20.8518 37.6606 20.8518 37.1593C20.8518 36.6579 21.257 36.2527 21.7584 36.2527Z" fill="#0EF5FF"/>
<path d="M5.43932 33.533H12.692C13.1934 33.533 13.5986 33.9382 13.5986 34.4395V37.1593C13.5986 37.6607 13.1934 38.0659 12.692 38.0659H5.43932C4.93798 38.0659 4.53273 37.6607 4.53273 37.1593V34.4395C4.53273 33.9382 4.93798 33.533 5.43932 33.533ZM6.34591 36.2527H11.7855V35.3461H6.34591V36.2527Z" fill="#0EF5FF"/>
</svg>

<svg width="33" height="58" viewBox="0 0 33 58" fill="none" xmlns="http://www.w3.org/2000/svg"><path d="M4.533 0h23.571c2.5 0 4.533 2.033 4.533 4.533v45.33a4.537 4.537 0 01-4.533 4.532H4.533A4.538 4.538 0 010 49.862V4.532A4.538 4.538 0 014.533 0zm-2.72 49.862c0 1.5 1.22 2.72 2.72 2.72h23.571c1.5 0 2.72-1.22 2.72-2.72V4.532a2.723 2.723 0 00-2.72-2.719H4.533c-1.5 0-2.72 1.22-2.72 2.72v45.33z" fill="#0EF5FF"/><path d="M.907 48.954c.5 0 .906.405.906.907v3.607c0 1.5 1.22 2.72 2.72 2.72h23.571c1.5 0 2.72-1.22 2.72-2.72v-3.607a.906.906 0 111.813 0v3.606c0 2.5-2.033 4.533-4.533 4.533H4.533A4.538 4.538 0 010 53.468v-3.607c0-.502.405-.907.907-.907zm0-3.646H31.73a.906.906 0 110 1.813H.907a.906.906 0 110-1.813z" fill="#0EF5FF"/><path d="M16.335 47.12c1.5 0 2.72 1.221 2.72 2.72 0 1.5-1.22 2.72-2.72 2.72-1.5 0-2.72-1.22-2.72-2.72 0-1.499 1.22-2.72 2.72-2.72zm0 3.627a.907.907 0 100-1.814.907.907 0 000 1.814zm-.782-41.272a.909.909 0 011.252-.279l9.973 6.347a.907.907 0 11-.974 1.53l-9.972-6.346a.907.907 0 01-.279-1.252z" fill="#0EF5FF"/><path d="M5.86 15.543l9.972-6.346a.907.907 0 11.974 1.53l-9.973 6.346a.91.91 0 01-1.252-.278.907.907 0 01.278-1.252zm9.693-2.442a.908.908 0 011.252-.278l9.973 6.346a.907.907 0 11-.974 1.53l-9.972-6.346a.907.907 0 01-.279-1.252z" fill="#0EF5FF"/><path d="M5.86 19.169l9.972-6.346a.907.907 0 01.974 1.53L6.832 20.7a.91.91 0 01-1.252-.278.907.907 0 01.278-1.252zm20.431-3.768c.502 0 .907.405.907.907v3.626a.906.906 0 11-1.813 0v-3.626c0-.502.405-.907.906-.907z" fill="#0EF5FF"/><path d="M6.346 15.401c.501 0 .906.405.906.907v3.626a.906.906 0 11-1.813 0v-3.626c0-.502.406-.907.907-.907zm18.132 2.473c.501 0 .906.405.906.907v11.126a.906.906 0 11-1.813 0V18.78c0-.502.405-.907.907-.907z" fill="#0EF5FF"/><path d="M5.44 29h21.758a.906.906 0 110 1.813H5.44a.906.906 0 110-1.813z" fill="#0EF5FF"/><path d="M8.16 17.874c.5 0 .906.405.906.907v11.126a.906.906 0 11-1.813 0V18.78c0-.502.405-.907.906-.907zm6.346 3.873h3.626c.501 0 .907.406.907.907v7.253a.906.906 0 01-.907.906h-3.626a.906.906 0 01-.907-.906v-7.253c0-.501.405-.907.907-.907zM15.412 29h1.813v-5.44h-1.813V29zm1.813 4.533h9.973a.906.906 0 110 1.813h-9.973a.906.906 0 110-1.813zm4.533 2.72h5.44a.906.906 0 110 1.813h-5.44a.906.906 0 110-1.813zM5.44 33.533h7.252c.501 0 .907.405.907.907v2.72a.906.906 0 01-.907.906H5.439a.906.906 0 01-.906-.907v-2.72c0-.5.405-.906.906-.906zm.906 2.72h5.44v-.907h-5.44v.907z" fill="#0EF5FF"/></svg>
